packages/core/src/svgs/tokens/branded/AGLD.svg

<svg width="24" height="24" viewBox="0 0 24 24" fill="none" xmlns="http://www.w3.org/2000/svg">
<path fill-rule="evenodd" clip-rule="evenodd" d="M5.23634 8.45557C5.30722 8.45557 5.36799 8.51633 5.34774 8.58216C5.30722 8.70874 5.06925 8.74924 4.82115 8.78469C4.61861 8.82013 4.41607 8.85557 4.30467 8.9366C4.13757 9.05306 4.02111 9.27078 4.02111 9.47839V14.4608C4.02111 14.7798 4.27935 15.0381 4.59834 15.0381H6.69461C7.25159 15.0381 7.5402 14.481 7.75793 14.0608L7.83389 13.9292C7.85414 13.8785 7.88451 13.8481 7.94528 13.8481C8.02629 13.8481 8.08705 13.919 8.07186 14L7.78325 15.3925C7.763 15.4785 7.68197 15.5443 7.5959 15.5443H2.11221C2.04132 15.5443 1.98056 15.4836 2.01093 15.4178C2.05144 15.3216 2.21347 15.2862 2.38056 15.2507C2.49197 15.2304 2.60842 15.2001 2.6945 15.1595C2.88185 15.0634 3.00843 14.8709 3.00843 14.6482V9.41762C3.00843 9.2404 2.92742 9.06318 2.80589 8.9366C2.69956 8.83532 2.53753 8.80495 2.38563 8.76951C2.21347 8.73406 2.05651 8.69862 2.00587 8.58216C1.98056 8.51633 2.04132 8.45557 2.10714 8.45557H5.23634ZM13.1353 13.2659C13.1353 13.8702 12.8952 14.4497 12.4679 14.877C12.0406 15.3043 11.4611 15.5443 10.8567 15.5443C10.2524 15.5443 9.67289 15.3043 9.24557 14.877C8.81826 14.4497 8.57821 13.8702 8.57821 13.2659C8.57821 12.6616 8.81826 12.0819 9.24557 11.6547C9.67289 11.2274 10.2524 10.9873 10.8567 10.9873C11.4611 10.9873 12.0406 11.2274 12.4679 11.6547C12.8952 12.0819 13.1353 12.6616 13.1353 13.2659ZM12.2239 13.0887C12.3606 14.1924 11.8644 15.1646 11.1099 15.2659C10.3504 15.3671 9.62127 14.5519 9.48456 13.4431C9.34279 12.3393 9.83901 11.367 10.5985 11.2658C11.3529 11.1645 12.0771 11.9797 12.2188 13.0887H12.2239ZM15.9201 15.5443C16.5245 15.5443 17.1041 15.3043 17.5313 14.877C17.9586 14.4497 18.1987 13.8702 18.1987 13.2659C18.1987 12.6616 17.9586 12.0819 17.5313 11.6547C17.1041 11.2274 16.5245 10.9873 15.9201 10.9873C15.3158 10.9873 14.7363 11.2274 14.309 11.6547C13.8816 12.0819 13.6417 12.6616 13.6417 13.2659C13.6417 13.8702 13.8816 14.4497 14.309 14.877C14.7363 15.3043 15.3158 15.5443 15.9201 15.5443ZM16.1733 15.2659C16.9278 15.1646 17.424 14.1924 17.2873 13.0887C17.1405 11.9797 16.4164 11.1645 15.6569 11.2658C14.9024 11.367 14.4062 12.3393 14.5429 13.4431C14.6847 14.5519 15.4139 15.3671 16.1683 15.2659H16.1733ZM20.4317 10.1518H20.4013C20.3406 10.1518 20.295 10.2126 20.2494 10.2683L20.2392 10.2835C19.9543 10.602 19.6311 10.8843 19.2773 11.124C19.257 11.1417 19.2407 11.1635 19.2293 11.1879C19.218 11.2124 19.2118 11.2388 19.2114 11.2658V11.3063C19.2114 11.4126 19.2924 11.4937 19.3987 11.4937H19.4393C19.5405 11.4937 19.7177 11.5949 19.7177 11.6962V14.2938C19.7177 15.0937 20.2848 15.5443 20.9836 15.5443C21.3583 15.5443 21.8191 15.2709 21.9963 14.7849C22.0216 14.7191 21.9102 14.6836 21.8647 14.7342C21.2064 15.2001 20.4975 14.9367 20.4975 14.1013V11.6962C20.4975 11.5949 20.5836 11.4986 20.69 11.4986H21.8039C21.9102 11.4986 21.9963 11.4177 21.9963 11.3114V11.1847C21.9963 11.1337 21.976 11.0848 21.94 11.0487C21.9038 11.0126 21.8549 10.9924 21.8039 10.9924H20.69C20.6389 10.9924 20.59 10.9721 20.5539 10.936C20.5178 10.8999 20.4975 10.851 20.4975 10.7999V10.2227C20.4975 10.2053 20.4905 10.1885 20.4782 10.1762C20.466 10.1638 20.4492 10.1568 20.4317 10.1568V10.1518Z" fill="white"/>
</svg>

<svg xmlns="http://www.w3.org/2000/svg" width="24" height="24" fill="none" viewBox="0 0 24 24">
    <path fill="#fff" fill-rule="evenodd" d="M5.236 8.456c.071 0 .132.06.112.126-.04.127-.279.167-.527.203-.202.035-.405.07-.516.152a.69.69 0 0 0-.284.541v4.983c0 .319.258.577.577.577h2.097c.557 0 .845-.557 1.063-.977l.076-.132c.02-.05.05-.08.111-.08.081 0 .142.07.127.151l-.289 1.393a.2.2 0 0 1-.187.151H2.112c-.07 0-.131-.06-.101-.126.04-.096.202-.132.37-.167.111-.02.227-.05.314-.091a.57.57 0 0 0 .313-.512v-5.23a.7.7 0 0 0-.202-.481c-.106-.102-.268-.132-.42-.167-.173-.036-.33-.071-.38-.188-.025-.066.035-.126.101-.126zm7.9 4.81a2.278 2.278 0 1 1-4.558 0 2.278 2.278 0 0 1 4.557 0m-.912-.177c.137 1.103-.36 2.076-1.114 2.177-.76.101-1.489-.714-1.625-1.823-.142-1.104.354-2.076 1.114-2.177.754-.101 1.478.714 1.62 1.823zm3.696 2.455a2.278 2.278 0 1 0 0-4.556 2.278 2.278 0 0 0 0 4.556m.253-.278c.755-.101 1.251-1.074 1.114-2.177-.146-1.11-.87-1.924-1.63-1.823-.755.101-1.25 1.073-1.114 2.177.142 1.109.87 1.924 1.625 1.823zm4.259-5.114h-.03c-.061 0-.107.06-.153.116l-.01.015q-.43.48-.962.841a.2.2 0 0 0-.066.142v.04c0 .107.081.188.188.188h.04c.102 0 .279.1.279.202v2.598c0 .8.567 1.25 1.266 1.25.374 0 .835-.273 1.012-.76.026-.065-.086-.1-.131-.05-.659.466-1.367.203-1.367-.633v-2.405a.2.2 0 0 1 .192-.197h1.114a.19.19 0 0 0 .192-.188v-.126a.193.193 0 0 0-.192-.193H20.69a.19.19 0 0 1-.193-.192v-.577a.066.066 0 0 0-.065-.066z" clip-rule="evenodd"/>
</svg>
